packages/symbols/svgs/solid/file-alt-solid.svg

<svg width="16" height="16" viewBox="0 0 16 16" xmlns="http://www.w3.org/2000/svg"><path d="M14 0H2c-.6 0-1 .4-1 1v14c0 .6.4 1 1 1h12c.6 0 1-.4 1-1V1c0-.6-.4-1-1-1ZM8 13H4v-2h4v2Zm4-4H4V7h8v2Zm0-4H4V3h8v2Z"/></svg>

<svg width="16" height="16" viewBox="0 0 16 16" fill="none" xmlns="http://www.w3.org/2000/svg">
<path d="M14 0H2C1.4 0 1 0.4 1 1V15C1 15.6 1.4 16 2 16H14C14.6 16 15 15.6 15 15V1C15 0.4 14.6 0 14 0ZM8 13H4V11H8V13ZM12 9H4V7H12V9ZM12 5H4V3H12V5Z" fill="black"/>
</svg>
